Sources/FrostedUI/Resources/Icons.xcassets/mobilePhone24.imageset/mobile-phone-24.svg

<svg width="24" height="24" viewBox="0 0 24 24" fill="none" xmlns="http://www.w3.org/2000/svg" data-fui-icon="true">
  <path
    d="M15.25 1C17.3211 1 19 2.67894 19 4.75V19.25C19 21.3211 17.3211 23 15.25 23H8.75C6.67894 23 5 21.3211 5 19.25V4.75C5 2.67894 6.67894 1 8.75 1H15.25ZM8.75 2.5C7.50736 2.5 6.5 3.50736 6.5 4.75V19.25C6.5 20.4927 7.50736 21.5 8.75 21.5H15.25C16.4927 21.5 17.5 20.4927 17.5 19.25V4.75C17.5 3.50736 16.4927 2.5 15.25 2.5H8.75ZM14.25 18.5C14.6642 18.5 15 18.8358 15 19.25C15 19.6642 14.6642 20 14.25 20H9.75C9.33579 20 9 19.6642 9 19.25C9 18.8358 9.33579 18.5 9.75 18.5H14.25Z"
    fill="currentColor"
  />
</svg>

<svg xmlns="http://www.w3.org/2000/svg" width="24" height="24" fill="none" data-fui-icon="true" viewBox="0 0 24 24"><path fill="currentColor" d="M15.25 1A3.75 3.75 0 0 1 19 4.75v14.5A3.75 3.75 0 0 1 15.25 23h-6.5A3.75 3.75 0 0 1 5 19.25V4.75A3.75 3.75 0 0 1 8.75 1zm-6.5 1.5A2.25 2.25 0 0 0 6.5 4.75v14.5a2.25 2.25 0 0 0 2.25 2.25h6.5a2.25 2.25 0 0 0 2.25-2.25V4.75a2.25 2.25 0 0 0-2.25-2.25zm5.5 16a.75.75 0 0 1 0 1.5h-4.5a.75.75 0 0 1 0-1.5z"/></svg>
